blog/2022/06-22-kubernetes-support/img/persistent_volume.svg

<svg xmlns="http://www.w3.org/2000/svg" xmlns:xlink="http://www.w3.org/1999/xlink" width="494" height="832" contentScriptType="application/ecmascript" contentStyleType="text/css" style="width:494px;height:832px;background:#00000000" preserveAspectRatio="none" version="1.1" viewBox="0 0 494 832" zoomAndPan="magnify"><g><rect id="kubernetes_resource" width="216" height="116.203" x="7" y="449.5" fill="#3D176E" codeLine="23" rx="2.5" ry="2.5" style="stroke:#000d19;stroke-width:1.5"/><ellipse cx="22" cy="469.394" fill="#E98DF7" rx="11" ry="11" style="stroke:#000d19;stroke-width:1"/><path fill="#000" d="M24.9688,475.0352 Q24.3906,475.332 23.75,475.4727 Q23.1094,475.6289 22.4063,475.6289 Q19.9063,475.6289 18.5781,473.9883 Q17.2656,472.332 17.2656,469.207 Q17.2656,466.082 18.5781,464.4258 Q19.9063,462.7695 22.4063,462.7695 Q23.1094,462.7695 23.75,462.9258 Q24.4063,463.082 24.9688,463.3789 L24.9688,466.0977 Q24.3438,465.5195 23.75,465.2539 Q23.1563,464.9727 22.5313,464.9727 Q21.1875,464.9727 20.5,466.0508 Q19.8125,467.1133 19.8125,469.207 Q19.8125,471.3008 20.5,472.3789 Q21.1875,473.4414 22.5313,473.4414 Q23.1563,473.4414 23.75,473.1758 Q24.3438,472.8945 24.9688,472.3164 L24.9688,475.0352 Z"/><text x="41" y="475.28" fill="#D9B8FF" font-family="Helvetica" font-size="17" lengthAdjust="spacing" textLength="174">kubernetes_resource</text><line style="stroke:#000d19;stroke-width:1.5" x1="8" x2="222" y1="489.289" y2="489.289"/><text x="18" y="508.5" fill="#D9B8FF" font-family="sans-serif" font-size="11" font-weight="bold" lengthAdjust="spacing" textLength="109">resource_version</text><text x="127" y="508.5" fill="#D9B8FF" font-family="sans-serif" font-size="11" lengthAdjust="spacing" textLength="41">: string</text><text x="18" y="531.304" fill="#D9B8FF" font-family="sans-serif" font-size="11" font-weight="bold" lengthAdjust="spacing" textLength="73">namespace</text><text x="91" y="531.304" fill="#D9B8FF" font-family="sans-serif" font-size="11" lengthAdjust="spacing" textLength="41">: string</text><text x="18" y="554.109" fill="#D9B8FF" font-family="sans-serif" font-size="11" font-weight="bold" lengthAdjust="spacing" textLength="39">labels</text><text x="57" y="554.109" fill="#D9B8FF" font-family="sans-serif" font-size="11" lengthAdjust="spacing" textLength="145">: dictionary[string, string]</text><rect id="resource" width="256" height="275.836" x="115" y="7" fill="#3D176E" codeLine="28" rx="2.5" ry="2.5" style="stroke:#000d19;stroke-width:1.5"/><ellipse cx="198.25" cy="26.895" fill="#E98DF7" rx="11" ry="11" style="stroke:#000d19;stroke-width:1"/><path fill="#000" d="M201.2188,32.5352 Q200.6406,32.832 200,32.9727 Q199.3594,33.1289 198.6563,33.1289 Q196.1563,33.1289 194.8281,31.4883 Q193.5156,29.832 193.5156,26.707 Q193.5156,23.582 194.8281,21.9258 Q196.1563,20.2695 198.6563,20.2695 Q199.3594,20.2695 200,20.4258 Q200.6563,20.582 201.2188,20.8789 L201.2188,23.5977 Q200.5938,23.0195 200,22.7539 Q199.4063,22.4727 198.7813,22.4727 Q197.4375,22.4727 196.75,23.5508 Q196.0625,24.6133 196.0625,26.707 Q196.0625,28.8008 196.75,29.8789 Q197.4375,30.9414 198.7813,30.9414 Q199.4063,30.9414 200,30.6758 Q200.5938,30.3945 201.2188,29.8164 L201.2188,32.5352 Z"/><text x="223.75" y="32.78" fill="#D9B8FF" font-family="Helvetica" font-size="17" lengthAdjust="spacing" textLength="71">resource</text><line style="stroke:#000d19;stroke-width:1.5" x1="116" x2="370" y1="46.789" y2="46.789"/><text x="126" y="65.999" fill="#D9B8FF" font-family="sans-serif" font-size="11" font-weight="bold" lengthAdjust="spacing" textLength="12">id</text><text x="138" y="65.999" fill="#D9B8FF" font-family="sans-serif" font-size="11" lengthAdjust="spacing" textLength="41">: string</text><text x="126" y="88.804" fill="#D9B8FF" font-family="sans-serif" font-size="11" font-weight="bold" lengthAdjust="spacing" textLength="28">tags</text><text x="154" y="88.804" fill="#D9B8FF" font-family="sans-serif" font-size="11" lengthAdjust="spacing" textLength="145">: dictionary[string, string]</text><text x="126" y="111.609" fill="#D9B8FF" font-family="sans-serif" font-size="11" font-weight="bold" lengthAdjust="spacing" textLength="35">name</text><text x="161" y="111.609" fill="#D9B8FF" font-family="sans-serif" font-size="11" lengthAdjust="spacing" textLength="41">: string</text><text x="126" y="134.414" fill="#D9B8FF" font-family="sans-serif" font-size="11" font-weight="bold" lengthAdjust="spacing" textLength="35">ctime</text><text x="161" y="134.414" fill="#D9B8FF" font-family="sans-serif" font-size="11" lengthAdjust="spacing" textLength="58">: datetime</text><text x="126" y="157.218" fill="#D9B8FF" font-family="sans-serif" font-size="11" font-weight="bold" lengthAdjust="spacing" textLength="24">age</text><text x="150" y="157.218" fill="#D9B8FF" font-family="sans-serif" font-size="11" lengthAdjust="spacing" textLength="159">: trafo.duration_to_datetime</text><text x="126" y="180.023" fill="#D9B8FF" font-family="sans-serif" font-size="11" font-weight="bold" lengthAdjust="spacing" textLength="39">mtime</text><text x="165" y="180.023" fill="#D9B8FF" font-family="sans-serif" font-size="11" lengthAdjust="spacing" textLength="58">: datetime</text><text x="126" y="202.828" fill="#D9B8FF" font-family="sans-serif" font-size="11" font-weight="bold" lengthAdjust="spacing" textLength="75">last_update</text><text x="201" y="202.828" fill="#D9B8FF" font-family="sans-serif" font-size="11" lengthAdjust="spacing" textLength="159">: trafo.duration_to_datetime</text><text x="126" y="225.632" fill="#D9B8FF" font-family="sans-serif" font-size="11" font-weight="bold" lengthAdjust="spacing" textLength="36">atime</text><text x="162" y="225.632" fill="#D9B8FF" font-family="sans-serif" font-size="11" lengthAdjust="spacing" textLength="58">: datetime</text><text x="126" y="248.437" fill="#D9B8FF" font-family="sans-serif" font-size="11" font-weight="bold" lengthAdjust="spacing" textLength="74">last_access</text><text x="200" y="248.437" fill="#D9B8FF" font-family="sans-serif" font-size="11" lengthAdjust="spacing" textLength="159">: trafo.duration_to_datetime</text><text x="126" y="271.242" fill="#D9B8FF" font-family="sans-serif" font-size="11" font-weight="bold" lengthAdjust="spacing" textLength="27">kind</text><text x="153" y="271.242" fill="#D9B8FF" font-family="sans-serif" font-size="11" lengthAdjust="spacing" textLength="41">: string</text><rect id="volume" width="229" height="207.422" x="258.5" y="404" fill="#3D176E" codeLine="40" rx="2.5" ry="2.5" style="stroke:#000d19;stroke-width:1.5"/><ellipse cx="332.25" cy="423.894" fill="#E98DF7" rx="11" ry="11" style="stroke:#000d19;stroke-width:1"/><path fill="#000" d="M335.2188,429.5352 Q334.6406,429.832 334,429.9727 Q333.3594,430.1289 332.6563,430.1289 Q330.1563,430.1289 328.8281,428.4883 Q327.5156,426.832 327.5156,423.707 Q327.5156,420.582 328.8281,418.9258 Q330.1563,417.2695 332.6563,417.2695 Q333.3594,417.2695 334,417.4258 Q334.6563,417.582 335.2188,417.8789 L335.2188,420.5977 Q334.5938,420.0195 334,419.7539 Q333.4063,419.4727 332.7813,419.4727 Q331.4375,419.4727 330.75,420.5508 Q330.0625,421.6133 330.0625,423.707 Q330.0625,425.8008 330.75,426.8789 Q331.4375,427.9414 332.7813,427.9414 Q333.4063,427.9414 334,427.6758 Q334.5938,427.3945 335.2188,426.8164 L335.2188,429.5352 Z"/><text x="357.75" y="429.78" fill="#D9B8FF" font-family="Helvetica" font-size="17" lengthAdjust="spacing" textLength="63">volume</text><line style="stroke:#000d19;stroke-width:1.5" x1="259.5" x2="486.5" y1="443.789" y2="443.789"/><text x="269.5" y="463" fill="#D9B8FF" font-family="sans-serif" font-size="11" font-weight="bold" lengthAdjust="spacing" textLength="78">volume_size</text><text x="347.5" y="463" fill="#D9B8FF" font-family="sans-serif" font-size="11" lengthAdjust="spacing" textLength="36">: int64</text><text x="269.5" y="485.804" fill="#D9B8FF" font-family="sans-serif" font-size="11" font-weight="bold" lengthAdjust="spacing" textLength="80">volume_type</text><text x="349.5" y="485.804" fill="#D9B8FF" font-family="sans-serif" font-size="11" lengthAdjust="spacing" textLength="41">: string</text><text x="269.5" y="508.609" fill="#D9B8FF" font-family="sans-serif" font-size="11" font-weight="bold" lengthAdjust="spacing" textLength="92">volume_status</text><text x="361.5" y="508.609" fill="#D9B8FF" font-family="sans-serif" font-size="11" lengthAdjust="spacing" textLength="41">: string</text><text x="269.5" y="531.414" fill="#D9B8FF" font-family="sans-serif" font-size="11" font-weight="bold" lengthAdjust="spacing" textLength="79">volume_iops</text><text x="348.5" y="531.414" fill="#D9B8FF" font-family="sans-serif" font-size="11" lengthAdjust="spacing" textLength="36">: int64</text><text x="269.5" y="554.218" fill="#D9B8FF" font-family="sans-serif" font-size="11" font-weight="bold" lengthAdjust="spacing" textLength="123">volume_throughput</text><text x="392.5" y="554.218" fill="#D9B8FF" font-family="sans-serif" font-size="11" lengthAdjust="spacing" textLength="36">: int64</text><text x="269.5" y="577.023" fill="#D9B8FF" font-family="sans-serif" font-size="11" font-weight="bold" lengthAdjust="spacing" textLength="116">volume_encrypted</text><text x="385.5" y="577.023" fill="#D9B8FF" font-family="sans-serif" font-size="11" lengthAdjust="spacing" textLength="53">: boolean</text><text x="269.5" y="599.828" fill="#D9B8FF" font-family="sans-serif" font-size="11" font-weight="bold" lengthAdjust="spacing" textLength="154">snapshot_before_delete</text><text x="423.5" y="599.828" fill="#D9B8FF" font-family="sans-serif" font-size="11" lengthAdjust="spacing" textLength="53">: boolean</text><rect id="kubernetes_persistent_volume" width="410" height="93.398" x="38" y="732" fill="#3D176E" codeLine="49" rx="2.5" ry="2.5" style="stroke:#000d19;stroke-width:1.5"/><ellipse cx="104.75" cy="751.894" fill="#E98DF7" rx="11" ry="11" style="stroke:#000d19;stroke-width:1"/><path fill="#000" d="M107.7188,757.5352 Q107.1406,757.832 106.5,757.9727 Q105.8594,758.1289 105.1563,758.1289 Q102.6563,758.1289 101.3281,756.4883 Q100.0156,754.832 100.0156,751.707 Q100.0156,748.582 101.3281,746.9258 Q102.6563,745.2695 105.1563,745.2695 Q105.8594,745.2695 106.5,745.4258 Q107.1563,745.582 107.7188,745.8789 L107.7188,748.5977 Q107.0938,748.0195 106.5,747.7539 Q105.9063,747.4727 105.2813,747.4727 Q103.9375,747.4727 103.25,748.5508 Q102.5625,749.6133 102.5625,751.707 Q102.5625,753.8008 103.25,754.8789 Q103.9375,755.9414 105.2813,755.9414 Q105.9063,755.9414 106.5,755.6758 Q107.0938,755.3945 107.7188,754.8164 L107.7188,757.5352 Z"/><text x="130.25" y="757.78" fill="#D9B8FF" font-family="Helvetica" font-size="17" lengthAdjust="spacing" textLength="258">kubernetes_persistent_volume</text><line style="stroke:#000d19;stroke-width:1.5" x1="39" x2="447" y1="771.789" y2="771.789"/><text x="49" y="791" fill="#D9B8FF" font-family="sans-serif" font-size="11" font-weight="bold" lengthAdjust="spacing" textLength="163">persistent_volume_status</text><text x="212" y="791" fill="#D9B8FF" font-family="sans-serif" font-size="11" lengthAdjust="spacing" textLength="225">: kubernetes_persistent_volume_status</text><text x="49" y="813.804" fill="#D9B8FF" font-family="sans-serif" font-size="11" font-weight="bold" lengthAdjust="spacing" textLength="153">persistent_volume_spec</text><text x="202" y="813.804" fill="#D9B8FF" font-family="sans-serif" font-size="11" lengthAdjust="spacing" textLength="216">: kubernetes_persistent_volume_spec</text><path id="resource-backto-kubernetes_resource" fill="none" d="M187.54,302.2 C168.95,354.57 149.37,409.69 135.25,449.47" codeLine="53" style="stroke:#ffaf37;stroke-width:2"/><polygon fill="none" points="181.05 299.57 194.33 283.06 194.24 304.25 181.05 299.57" style="stroke:#ffaf37;stroke-width:2"/><path id="resource-backto-volume" fill="none" d="M299.27,302.05 C311.7,336.52 324.57,372.2 336,403.9" codeLine="54" style="stroke:#ffaf37;stroke-width:2"/><polygon fill="none" points="292.63 304.25 292.43 283.06 305.8 299.5 292.63 304.25" style="stroke:#ffaf37;stroke-width:2"/><path id="kubernetes_resource-backto-kubernetes_persistent_volume" fill="none" d="M150.81,583.75 C173.43,631.29 201.92,691.17 221.2,731.69" codeLine="55" style="stroke:#ffaf37;stroke-width:2"/><polygon fill="none" points="144.42 586.62 142.15 565.55 157.06 580.6 144.42 586.62" style="stroke:#ffaf37;stroke-width:2"/><path id="volume-backto-kubernetes_persistent_volume" fill="none" d="M314.49,629.57 C296.96,665.85 278.79,703.44 265.16,731.65" codeLine="56" style="stroke:#ffaf37;stroke-width:2"/><polygon fill="none" points="308.29 626.31 323.3 611.35 320.9 632.4 308.29 626.31" style="stroke:#ffaf37;stroke-width:2"/></g></svg>

<svg xmlns="http://www.w3.org/2000/svg" width="494" height="832" preserveAspectRatio="none" style="width:494px;height:832px;background:#00000000"><rect width="216" height="116.203" x="7" y="449.5" fill="#3D176E" rx="2.5" ry="2.5" style="stroke:#000d19;stroke-width:1.5"/><circle cx="22" cy="469.394" r="11" fill="#E98DF7" style="stroke:#000d19;stroke-width:1"/><path d="M24.969 475.035q-.578.297-1.219.438-.64.156-1.344.156-2.5 0-3.828-1.64-1.312-1.657-1.312-4.782t1.312-4.781q1.328-1.656 3.828-1.656.703 0 1.344.156.656.156 1.219.453v2.719q-.625-.579-1.219-.844-.594-.281-1.219-.281-1.343 0-2.031 1.078-.688 1.062-.688 3.156 0 2.094.688 3.172.688 1.062 2.031 1.062.625 0 1.219-.265.594-.281 1.219-.86v2.72Z"/><text x="41" y="475.28" fill="#D9B8FF" font-family="Helvetica" font-size="17" textLength="174">kubernetes_resource</text><path d="M8 489.289h214" style="stroke:#000d19;stroke-width:1.5"/><text x="18" y="508.5" fill="#D9B8FF" font-family="sans-serif" font-size="11" font-weight="bold" textLength="109">resource_version</text><text x="127" y="508.5" fill="#D9B8FF" font-family="sans-serif" font-size="11" textLength="41">: string</text><text x="18" y="531.304" fill="#D9B8FF" font-family="sans-serif" font-size="11" font-weight="bold" textLength="73">namespace</text><text x="91" y="531.304" fill="#D9B8FF" font-family="sans-serif" font-size="11" textLength="41">: string</text><text x="18" y="554.109" fill="#D9B8FF" font-family="sans-serif" font-size="11" font-weight="bold" textLength="39">labels</text><text x="57" y="554.109" fill="#D9B8FF" font-family="sans-serif" font-size="11" textLength="145">: dictionary[string, string]</text><rect width="256" height="275.836" x="115" y="7" fill="#3D176E" rx="2.5" ry="2.5" style="stroke:#000d19;stroke-width:1.5"/><circle cx="198.25" cy="26.895" r="11" fill="#E98DF7" style="stroke:#000d19;stroke-width:1"/><path d="M201.219 32.535q-.578.297-1.219.438-.64.156-1.344.156-2.5 0-3.828-1.64-1.312-1.657-1.312-4.782t1.312-4.781q1.328-1.656 3.828-1.656.703 0 1.344.156.656.156 1.219.453v2.719q-.625-.578-1.219-.844-.594-.281-1.219-.281-1.344 0-2.031 1.078-.688 1.062-.688 3.156 0 2.094.688 3.172.688 1.062 2.031 1.062.625 0 1.219-.265.594-.281 1.219-.86v2.72Z"/><text x="223.75" y="32.78" fill="#D9B8FF" font-family="Helvetica" font-size="17" textLength="71">resource</text><path d="M116 46.789h254" style="stroke:#000d19;stroke-width:1.5"/><text x="126" y="65.999" fill="#D9B8FF" font-family="sans-serif" font-size="11" font-weight="bold" textLength="12">id</text><text x="138" y="65.999" fill="#D9B8FF" font-family="sans-serif" font-size="11" textLength="41">: string</text><text x="126" y="88.804" fill="#D9B8FF" font-family="sans-serif" font-size="11" font-weight="bold" textLength="28">tags</text><text x="154" y="88.804" fill="#D9B8FF" font-family="sans-serif" font-size="11" textLength="145">: dictionary[string, string]</text><text x="126" y="111.609" fill="#D9B8FF" font-family="sans-serif" font-size="11" font-weight="bold" textLength="35">name</text><text x="161" y="111.609" fill="#D9B8FF" font-family="sans-serif" font-size="11" textLength="41">: string</text><text x="126" y="134.414" fill="#D9B8FF" font-family="sans-serif" font-size="11" font-weight="bold" textLength="35">ctime</text><text x="161" y="134.414" fill="#D9B8FF" font-family="sans-serif" font-size="11" textLength="58">: datetime</text><text x="126" y="157.218" fill="#D9B8FF" font-family="sans-serif" font-size="11" font-weight="bold" textLength="24">age</text><text x="150" y="157.218" fill="#D9B8FF" font-family="sans-serif" font-size="11" textLength="159">: trafo.duration_to_datetime</text><text x="126" y="180.023" fill="#D9B8FF" font-family="sans-serif" font-size="11" font-weight="bold" textLength="39">mtime</text><text x="165" y="180.023" fill="#D9B8FF" font-family="sans-serif" font-size="11" textLength="58">: datetime</text><text x="126" y="202.828" fill="#D9B8FF" font-family="sans-serif" font-size="11" font-weight="bold" textLength="75">last_update</text><text x="201" y="202.828" fill="#D9B8FF" font-family="sans-serif" font-size="11" textLength="159">: trafo.duration_to_datetime</text><text x="126" y="225.632" fill="#D9B8FF" font-family="sans-serif" font-size="11" font-weight="bold" textLength="36">atime</text><text x="162" y="225.632" fill="#D9B8FF" font-family="sans-serif" font-size="11" textLength="58">: datetime</text><text x="126" y="248.437" fill="#D9B8FF" font-family="sans-serif" font-size="11" font-weight="bold" textLength="74">last_access</text><text x="200" y="248.437" fill="#D9B8FF" font-family="sans-serif" font-size="11" textLength="159">: trafo.duration_to_datetime</text><text x="126" y="271.242" fill="#D9B8FF" font-family="sans-serif" font-size="11" font-weight="bold" textLength="27">kind</text><text x="153" y="271.242" fill="#D9B8FF" font-family="sans-serif" font-size="11" textLength="41">: string</text><rect width="229" height="207.422" x="258.5" y="404" fill="#3D176E" rx="2.5" ry="2.5" style="stroke:#000d19;stroke-width:1.5"/><circle cx="332.25" cy="423.894" r="11" fill="#E98DF7" style="stroke:#000d19;stroke-width:1"/><path d="M335.219 429.535q-.578.297-1.219.438-.64.156-1.344.156-2.5 0-3.828-1.64-1.312-1.657-1.312-4.782t1.312-4.781q1.328-1.656 3.828-1.656.703 0 1.344.156.656.156 1.219.453v2.719q-.625-.579-1.219-.844-.594-.281-1.219-.281-1.344 0-2.031 1.078-.688 1.062-.688 3.156 0 2.094.688 3.172.688 1.062 2.031 1.062.625 0 1.219-.265.594-.281 1.219-.86v2.72Z"/><text x="357.75" y="429.78" fill="#D9B8FF" font-family="Helvetica" font-size="17" textLength="63">volume</text><path d="M259.5 443.789h227" style="stroke:#000d19;stroke-width:1.5"/><text x="269.5" y="463" fill="#D9B8FF" font-family="sans-serif" font-size="11" font-weight="bold" textLength="78">volume_size</text><text x="347.5" y="463" fill="#D9B8FF" font-family="sans-serif" font-size="11" textLength="36">: int64</text><text x="269.5" y="485.804" fill="#D9B8FF" font-family="sans-serif" font-size="11" font-weight="bold" textLength="80">volume_type</text><text x="349.5" y="485.804" fill="#D9B8FF" font-family="sans-serif" font-size="11" textLength="41">: string</text><text x="269.5" y="508.609" fill="#D9B8FF" font-family="sans-serif" font-size="11" font-weight="bold" textLength="92">volume_status</text><text x="361.5" y="508.609" fill="#D9B8FF" font-family="sans-serif" font-size="11" textLength="41">: string</text><text x="269.5" y="531.414" fill="#D9B8FF" font-family="sans-serif" font-size="11" font-weight="bold" textLength="79">volume_iops</text><text x="348.5" y="531.414" fill="#D9B8FF" font-family="sans-serif" font-size="11" textLength="36">: int64</text><text x="269.5" y="554.218" fill="#D9B8FF" font-family="sans-serif" font-size="11" font-weight="bold" textLength="123">volume_throughput</text><text x="392.5" y="554.218" fill="#D9B8FF" font-family="sans-serif" font-size="11" textLength="36">: int64</text><text x="269.5" y="577.023" fill="#D9B8FF" font-family="sans-serif" font-size="11" font-weight="bold" textLength="116">volume_encrypted</text><text x="385.5" y="577.023" fill="#D9B8FF" font-family="sans-serif" font-size="11" textLength="53">: boolean</text><text x="269.5" y="599.828" fill="#D9B8FF" font-family="sans-serif" font-size="11" font-weight="bold" textLength="154">snapshot_before_delete</text><text x="423.5" y="599.828" fill="#D9B8FF" font-family="sans-serif" font-size="11" textLength="53">: boolean</text><rect width="410" height="93.398" x="38" y="732" fill="#3D176E" rx="2.5" ry="2.5" style="stroke:#000d19;stroke-width:1.5"/><circle cx="104.75" cy="751.894" r="11" fill="#E98DF7" style="stroke:#000d19;stroke-width:1"/><path d="M107.719 757.535q-.578.297-1.219.438-.64.156-1.344.156-2.5 0-3.828-1.64-1.312-1.657-1.312-4.782t1.312-4.781q1.328-1.657 3.828-1.657.703 0 1.344.157.656.156 1.219.453v2.719q-.625-.578-1.219-.844-.594-.281-1.219-.281-1.344 0-2.031 1.078-.688 1.062-.688 3.156 0 2.094.688 3.172.688 1.062 2.031 1.062.625 0 1.219-.265.594-.282 1.219-.86v2.72Z"/><text x="130.25" y="757.78" fill="#D9B8FF" font-family="Helvetica" font-size="17" textLength="258">kubernetes_persistent_volume</text><path d="M39 771.789h408" style="stroke:#000d19;stroke-width:1.5"/><text x="49" y="791" fill="#D9B8FF" font-family="sans-serif" font-size="11" font-weight="bold" textLength="163">persistent_volume_status</text><text x="212" y="791" fill="#D9B8FF" font-family="sans-serif" font-size="11" textLength="225">: kubernetes_persistent_volume_status</text><text x="49" y="813.804" fill="#D9B8FF" font-family="sans-serif" font-size="11" font-weight="bold" textLength="153">persistent_volume_spec</text><text x="202" y="813.804" fill="#D9B8FF" font-family="sans-serif" font-size="11" textLength="216">: kubernetes_persistent_volume_spec</text><path fill="none" d="M187.54 302.2c-18.59 52.37-38.17 107.49-52.29 147.27m45.8-149.9 13.28-16.51-.09 21.19-13.19-4.68zm118.22 2.48c12.43 34.47 25.3 70.15 36.73 101.85m-43.37-99.65-.2-21.19 13.37 16.44-13.17 4.75zm-141.82 279.5 70.39 147.94m-76.78-145.07-2.27-21.07 14.91 15.05-12.64 6.02zm170.07 42.95c-17.53 36.28-35.7 73.87-49.33 102.08m43.13-105.34 15.01-14.96-2.4 21.05-12.61-6.09z" style="stroke:#ffaf37;stroke-width:2"/></svg>
